brandFactory_export/1.Light/Detalle de llamadas_1Light.svg

<?xml version="1.0" encoding="UTF-8"?>
<svg width="24px" height="24px" viewBox="0 0 24 24" version="1.1" xmlns="http://www.w3.org/2000/svg" xmlns:xlink="http://www.w3.org/1999/xlink">
    <title>1.Light/Detalle de llamadas_1Light</title>
    <g id="Symbols" stroke="none" stroke-width="1" fill="none" fill-rule="evenodd">
        <g id="1.Light/Detalle-de-llamadas_1Light" fill="#5CB615" fill-rule="nonzero">
            <path d="M16.5092437,-8.8817842e-15 C16.5676249,-8.8817842e-15 16.6226542,0.01508415 16.6706265,0.0415475711 C16.6987279,0.0565458409 16.7246499,0.0754533392 16.7478992,0.0974789916 L23.302521,6.65210084 C23.3663866,6.71596639 23.4,6.8 23.4,6.8907563 L23.4,22.6218487 C23.4,23.1495798 22.9361345,23.6134454 22.4084034,23.6134454 L7.33277311,23.6134454 C6.81512605,23.6134454 6.34117647,23.1394958 6.34117647,22.6218487 L6.34117647,16.0672269 C6.34117647,16.0137107 6.35385135,15.9630112 6.3763474,15.9179821 C6.30289061,15.8466493 6.22788688,15.7724247 6.15294118,15.697479 L6.14957983,15.6941176 L6.07563025,15.6235294 L6.07226891,15.6201681 C3.93781513,13.4823529 2.38823529,11.3008403 1.59495798,9.31092437 C0.848739496,7.44201681 0.825210084,5.85882353 1.5210084,4.84705882 C1.52436975,4.84033613 1.52773109,4.83697479 1.53445378,4.8302521 L1.54789916,4.81008403 C1.63529412,4.68907563 1.89747899,4.32605042 2.16638655,4.07058824 C3.5806638,2.71902838 4.98323898,2.63129295 6.34136072,3.80192338 L6.34117647,0.991596639 C6.34117647,0.490756303 6.83193277,-8.8817842e-15 7.33277311,-8.8817842e-15 L16.5092437,-8.8817842e-15 L16.5092437,-8.8817842e-15 Z M16.1726091,0.672 L7.33277311,0.672268908 C7.20504202,0.672268908 7.01344538,0.863865546 7.01344538,0.991596639 L7.01344538,4.26890756 C7.01344538,4.33134306 6.99619346,4.38994481 6.9662212,4.44018122 C7.10017891,4.60339445 7.2228836,4.7775638 7.33277311,4.96134454 C7.86386555,5.81512605 8.17983193,7.14621849 6.68739496,8.63865546 C6.54285714,8.78655462 6.38823529,8.9210084 6.22352941,9.0487395 C5.98823529,9.34453782 6.39831933,10.0369748 6.66386555,10.4268908 C7.22857143,11.2504202 8.16638655,12.2151261 8.82184874,12.8705882 L8.89915966,12.9478992 C9.55462185,13.6033613 10.5193277,14.5411765 11.3428571,15.102521 C11.7327731,15.3714286 12.4252101,15.7781513 12.7210084,15.5428571 C12.8487395,15.3781513 12.9831933,15.2235294 13.1310924,15.0789916 C14.6235294,13.5865546 15.9512605,13.902521 16.8084034,14.4336134 C17.1344538,14.6285714 17.4302521,14.8605042 17.6957983,15.1327731 C19.1445378,16.5815126 19.1478992,18.087395 17.6991597,19.6 C17.4436975,19.8689076 17.0773109,20.1310924 16.9596639,20.2184874 L16.9394958,20.2319328 L16.9226891,20.2453782 C16.4352941,20.5815126 15.810084,20.7529412 15.087395,20.7529412 C14.3142857,20.7529412 13.4235294,20.5613445 12.4588235,20.1747899 C10.7355303,19.4878014 8.86854366,18.2336021 7.0128683,16.5235335 L7.01344538,22.6218487 C7.01344538,22.7663866 7.18823529,22.9411765 7.33277311,22.9411765 L22.4084034,22.9411765 C22.5630252,22.9411765 22.7277311,22.7764706 22.7277311,22.6218487 L22.7276091,7.226 L19.7865546,7.22689076 C18.7310924,7.22689076 17.8268908,6.88067227 17.1714286,6.22857143 C16.5159664,5.57647059 16.1731092,4.67226891 16.1731092,3.61344538 L16.1726091,0.672 Z M2.63361345,4.55462185 C2.48571429,4.69579832 2.30420168,4.91428571 2.09579832,5.20336134 L2.07226891,5.23361345 C0.976470588,6.83697479 2.15966387,10.7529412 6.54621849,15.1428571 L6.58991597,15.1865546 L6.62689076,15.2201681 C11.0168067,19.610084 14.9294118,20.7932773 16.5361345,19.697479 L16.5663866,19.6739496 C16.8554622,19.4655462 17.0705882,19.287395 17.2151261,19.1361345 C18.4084034,17.8857143 18.4117647,16.7966387 17.2218487,15.6067227 C16.9966387,15.3781513 16.7445378,15.1764706 16.4689076,15.0117647 L16.4588235,15.005042 C15.5042017,14.410084 14.5731092,14.5882353 13.6084034,15.5529412 C13.4739496,15.687395 13.3462185,15.8285714 13.2319328,15.9831933 C13.2218487,15.9966387 13.2084034,16.010084 13.194958,16.0235294 C12.4722689,16.6890756 11.3361345,15.912605 10.9663866,15.6571429 C10.0957983,15.0621849 9.10084034,14.0941176 8.42521008,13.4218487 L8.34789916,13.3445378 C7.67226891,12.6689076 6.70756302,11.6739496 6.11260504,10.8033613 C5.85714286,10.4302521 5.07731092,9.29747899 5.74621849,8.57478992 C5.75966387,8.56134454 5.7697479,8.5512605 5.78655462,8.53781513 C5.93781513,8.42352941 6.08235294,8.29579832 6.21680672,8.16134454 C7.17815126,7.2 7.35966387,6.26554622 6.76470588,5.31092437 L6.75798319,5.30084034 C6.59327731,5.02521008 6.39495798,4.77310924 6.16302521,4.54789916 C4.97310924,3.35798319 3.88403361,3.36134454 2.63361345,4.55462185 Z M22.2536091,6.554 L16.8446091,1.149 L16.8453782,3.61344538 C16.8453782,5.39831933 17.9983193,6.55462185 19.7865546,6.55462185 L22.2536091,6.554 Z" id="Detalle-de-llamadas_1Light"></path>
        </g>
    </g>
</svg>

<svg width="24" height="24" viewBox="0 0 24 24" xmlns="http://www.w3.org/2000/svg"><path d="M16.51 0a.357.357 0 01.239.097l6.554 6.555a.333.333 0 01.097.239v15.73c0 .529-.464.992-.992.992H7.333c-.518 0-.992-.474-.992-.991v-6.555c0-.053.013-.104.035-.149a21.53 21.53 0 01-.223-.22l-.003-.004-.074-.07-.004-.004c-2.134-2.138-3.684-4.32-4.477-6.31-.746-1.868-.77-3.451-.074-4.463.003-.007.007-.01.013-.017l.014-.02c.087-.12.35-.484.618-.74 1.415-1.351 2.817-1.439 4.175-.268V.992c0-.501.49-.992.992-.992h9.176zm-.337.672h-8.84c-.128 0-.32.192-.32.32v3.277a.333.333 0 01-.047.171 4.3 4.3 0 01.367.521c.53.854.847 2.185-.646 3.678-.144.148-.299.282-.463.41-.236.296.174.988.44 1.378.565.823 1.502 1.788 2.158 2.444l.077.077c.656.655 1.62 1.593 2.444 2.155.39.268 1.082.675 1.378.44.128-.165.262-.32.41-.464 1.493-1.492 2.82-1.176 3.677-.645.326.195.622.427.888.699 1.449 1.449 1.452 2.954.003 4.467-.255.269-.622.531-.74.618l-.02.014-.016.013c-.488.337-1.113.508-1.836.508-.773 0-1.663-.192-2.628-.578-1.723-.687-3.59-1.941-5.446-3.651v6.098c0 .144.175.32.32.32h15.075c.155 0 .32-.166.32-.32V7.226h-2.941c-1.056 0-1.96-.345-2.616-.997-.655-.653-.998-1.557-.998-2.616V.672zM2.633 4.555c-.147.14-.329.36-.537.648l-.024.03c-1.096 1.604.088 5.52 4.474 9.91l.044.044.037.033c4.39 4.39 8.302 5.573 9.91 4.477l.03-.023a4.83 4.83 0 00.648-.538c1.193-1.25 1.197-2.34.007-3.53a3.788 3.788 0 00-.753-.594l-.01-.007c-.955-.595-1.886-.417-2.85.548a3.834 3.834 0 00-.377.43c-.01.014-.024.027-.037.04-.723.666-1.859-.11-2.229-.366-.87-.595-1.865-1.563-2.54-2.235l-.078-.077c-.676-.676-1.64-1.671-2.235-2.542-.256-.373-1.036-1.506-.367-2.228.014-.014.024-.024.04-.037.152-.114.296-.242.43-.377.962-.961 1.144-1.895.549-2.85l-.007-.01a3.67 3.67 0 00-.595-.753c-1.19-1.19-2.279-1.187-3.53.007zm19.62 1.999l-5.408-5.405v2.464c0 1.785 1.153 2.942 2.942 2.942l2.467-.001z" fill="#5CB615" fill-rule="nonzero"/></svg>
